app/dist/common/images/japan-exchange-group.svg

<svg height="18" viewBox="0 0 18 18" width="18" xmlns="http://www.w3.org/2000/svg" xmlns:xlink="http://www.w3.org/1999/xlink"><linearGradient id="a" gradientUnits="userSpaceOnUse" x1="1.57" x2="15.81" y1="1.48" y2="15.57"><stop offset=".54" stop-color="#f26531"/><stop offset=".75" stop-color="#ed1c24"/></linearGradient><linearGradient id="b" gradientUnits="userSpaceOnUse" x1="2.84" x2="11.52" y1="-4.41" y2="9.94"><stop offset=".6" stop-color="#ed1c24"/><stop offset=".73" stop-color="#ba1015"/><stop offset=".85" stop-color="#92080a"/><stop offset=".94" stop-color="#7a0203"/></linearGradient><path d="m0 0h18v18h-18z" fill="#f0f3fa"/><path d="m12 11.66v-8.16l2 .99v8.16l-2-1zm-.7 1.49-2-1v-8.15l2 .99zm-4.6-.26v-8.15l2 .98v8.16zm-.7-6.55-2-.99v8.16l2 .99z" fill="url(#a)"/><path d="m12 7.76v-4.26l2 .99a10.63 10.63 0 0 1 -2 3.27zm-2.7 2.21c.72-.4 1.4-.88 2-1.42v-3.55l-2-1zm-.6.57c-.64.29-1.3.52-2 .69v-6.5l2 1zm-4.7-5.19 2 1v5.06c-.63.1-1.27.15-1.92.15h-.08v-6.2z" fill="url(#b)"/></svg>

<!-- by TradingView --><svg xmlns="http://www.w3.org/2000/svg" width="18" height="18" viewBox="0 0 18 18"><path fill="#F0F3FA" d="M0 0h18v18H0z"/><path d="M12 11.66V3.5l2 .99v8.16l-2-1Zm-.7 1.49-2-1V4l2 .99v8.16Zm-4.6-.26V4.74l2 .98v8.16l-2-.99ZM6 6.34l-2-.99v8.16l2 .99V6.34Z" fill="url(#aseiotcg3)"/><path d="M12 7.76V3.5l2 .99a10.63 10.63 0 0 1-2 3.27ZM9.3 9.97c.72-.4 1.4-.88 2-1.42V5L9.3 4v5.97Zm-.6.57c-.64.29-1.3.52-2 .69v-6.5l2 1v4.81ZM4 5.35l2 1v5.06c-.63.1-1.27.15-1.92.15H4v-6.2Z" fill="url(#bseiotcg3)"/><defs><linearGradient id="aseiotcg3" x1="1.57" y1="1.48" x2="15.81" y2="15.57" gradientUnits="userSpaceOnUse"><stop offset=".54" stop-color="#F26531"/><stop offset=".75" stop-color="#ED1C24"/></linearGradient><linearGradient id="bseiotcg3" x1="2.84" y1="-4.41" x2="11.52" y2="9.94" gradientUnits="userSpaceOnUse"><stop offset=".6" stop-color="#ED1C24"/><stop offset=".73" stop-color="#BA1015"/><stop offset=".85" stop-color="#92080A"/><stop offset=".94" stop-color="#7A0203"/></linearGradient></defs></svg>
